X:1
T:The Two Brothers
M:6/4
L:1/4
K:G
 D| G2 G A2 F G2 E| D2 D G G G B- G B| A3- A2 G B2 d| d2 d B A G d3|\
 d2- c
M:6/4
| B- G B A- F A| G3- G2||
